assets/icons/icon-stylist/web/icon-stylist.svg

<?xml version="1.0" encoding="UTF-8" standalone="no"?>
<svg width="48px" height="48px" viewBox="0 0 48 48" version="1.1" xmlns="http://www.w3.org/2000/svg" xmlns:xlink="http://www.w3.org/1999/xlink">
    <!-- Generator: Sketch 45.2 (43514) - http://www.bohemiancoding.com/sketch -->
    <title>icon-stylist</title>
    <desc>Created with Sketch.</desc>
    <defs></defs>
    <g id="Symbols" stroke="none" stroke-width="1" fill="none" fill-rule="evenodd">
        <g id="icon-stylist" fill="#2D2D2D">
            <g transform="translate(10.732749, 17.000000)">
                <path d="M14.2192269,8.33911394 C13.4773165,7.86912812 12.0614235,7.86984454 11.320644,8.33911394 L5.52095028,12.0131069 L20.0189206,12.0131069 L14.2192269,8.33911394 Z M10.230313,6.6677822 C11.6329077,5.77926575 13.9010945,5.77554806 15.3095579,6.6677822 L24.3444317,12.3911987 C25.7470265,13.2797151 25.5225476,14 23.8631383,14 L1.67673261,14 C0.0083268433,14 -0.213024238,13.2834328 1.1954392,12.3911987 L10.230313,6.6677822 Z" id="Rectangle-14" fill-rule="nonzero"></path>
                <rect id="Rectangle-15" x="11.9868565" y="5" width="1.99780942" height="3"></rect>
                <path d="M12.9857612,4 C12.4340814,4 11.9868565,3.55228475 11.9868565,3 C11.9868565,2.44771525 12.4340814,2 12.9857612,2 C13.5374411,2 13.9846659,2.44771525 13.9846659,3 C13.9846659,3.55228475 14.6220383,3.63807119 14.9835706,4 L15.9824754,3 C15.9824754,1.34314575 14.6408007,0 12.9857612,0 C11.3307217,0 9.9890471,1.34314575 9.9890471,3 C9.9890471,4.65685425 12.3296264,6 13.9846659,6 L13.9846659,5 C13.9846659,5 13.9846659,4 12.9857612,4 Z" id="Oval-4" fill-rule="nonzero" transform="translate(12.985761, 3.000000) scale(-1, 1) translate(-12.985761, -3.000000) "></path>
                <ellipse id="Oval-5" cx="14.9835706" cy="3" rx="1" ry="1"></ellipse>
            </g>
        </g>
    </g>
</svg>

<svg width="48" height="48" viewBox="0 0 48 48" xmlns="http://www.w3.org/2000/svg"><title>icon-stylist</title><g transform="translate(10.733 17)" fill="#2D2D2D" fill-rule="evenodd"><path d="M14.22 8.34c-.743-.47-2.159-.47-2.9 0l-5.799 3.673h14.498l-5.8-3.674zm-3.99-1.672c1.403-.889 3.671-.892 5.08 0l9.034 5.723c1.403.889 1.179 1.609-.48 1.609H1.676c-1.669 0-1.89-.717-.482-1.609l9.035-5.723z" fill-rule="nonzero"/><path d="M11.987 5h1.998v3h-1.998z"/><path d="M12.986 4a1 1 0 1 0-1-1c0 .552-.637.638-.998 1l-.999-1c0-1.657 1.342-3 2.997-3a2.998 2.998 0 0 1 2.996 3c0 1.657-2.34 3-3.995 3V5s0-1 .999-1z" fill-rule="nonzero"/><ellipse cx="14.984" cy="3" rx="1" ry="1"/></g></svg>
